tools/download-figma-icons/icons/outlined-large/heat-pump.svg

<svg width="64" height="64" viewBox="0 0 64 64" fill="none" xmlns="http://www.w3.org/2000/svg">
<path fill-rule="evenodd" clip-rule="evenodd" d="M5.5 6H58.5C61.53 6 64 8.47 64 11.5V47.5C64 50.53 61.53 53 58.5 53H54V56.5C54 57.33 53.33 58 52.5 58H44.5C43.67 58 43 57.33 43 56.5V53H21V56.5C21 57.33 20.33 58 19.5 58H11.5C10.67 58 10 57.33 10 56.5V53H5.5C2.47 53 0 50.53 0 47.5V11.5C0 8.47 2.47 6 5.5 6ZM13 55H18V53H13V55ZM46 55H51V53H46V55ZM58.5 50C59.88 50 61 48.88 61 47.5V11.5C61 10.12 59.88 9 58.5 9H5.5C4.12 9 3 10.12 3 11.5V47.5C3 48.88 4.12 50 5.5 50H58.5ZM22.5 13C13.4 13 6 20.4 6 29.5C6 38.6 13.4 46 22.5 46C31.6 46 39 38.6 39 29.5C39 20.4 31.6 13 22.5 13ZM22.5 43C15.06 43 9 36.94 9 29.5C9 22.06 15.06 16 22.5 16C29.94 16 36 22.06 36 29.5C36 36.94 29.94 43 22.5 43ZM29.89 25.4998C30.72 25.5798 31.51 25.1698 31.92 24.4598C32.34 23.7398 32.31 22.8698 31.84 22.1898C29.5 18.7898 25.85 17.4998 23.21 17.4298C21.21 17.3998 19.61 17.9798 18.79 19.0498C16.6 21.7398 17.73 25.0298 18.89 26.8398C18.49 27.3798 18.2 28.0098 18.07 28.6998C17.17 28.4198 16.29 27.2598 15.32 25.1098C14.97 24.3498 14.24 23.8798 13.4 23.8698H13.39C12.56 23.8698 11.83 24.3298 11.48 25.0798C9.70001 28.8098 10.41 32.6098 11.67 34.9298C12.62 36.6698 13.95 37.7798 15.28 37.9498C15.6 37.9998 15.9 38.0298 16.2 38.0298C19.11 38.0298 21.08 35.7098 21.98 33.9698C22.0225 33.9748 22.065 33.9804 22.1075 33.9861L22.1076 33.9861C22.2351 34.003 22.3625 34.0198 22.49 34.0198C23.02 34.0198 23.52 33.9098 23.99 33.7398C24.2 34.6698 23.64 35.9998 22.26 37.9198C21.78 38.5898 21.74 39.4898 22.15 40.1998C22.53 40.8698 23.22 41.2698 23.97 41.2698H24.15C28.27 40.9398 31.21 38.4298 32.59 36.1798C33.63 34.4898 33.92 32.7898 33.4 31.5398C32.17 28.3098 28.77 27.6398 26.62 27.7298C26.34 27.0998 25.92 26.5498 25.4 26.1098C26.1 25.4598 27.54 25.2798 29.89 25.5198V25.4998ZM21.14 20.9098C21.29 20.7198 21.91 20.4298 22.97 20.4298H23.13C24.58 20.4698 26.47 21.0198 28.04 22.3998C26.09 22.4198 23.61 22.8698 22.47 25.0098C22.09 25.0098 21.74 25.0698 21.39 25.1598C20.87 24.3298 19.92 22.4098 21.15 20.9098H21.14ZM15.72 34.9698C15.47 34.9398 14.86 34.5098 14.31 33.4898C13.62 32.2098 13.16 30.2998 13.56 28.2598C14.56 29.9498 16.19 31.8698 18.62 31.7798C18.81 32.0898 19.02 32.3898 19.27 32.6498C18.81 33.5198 17.62 35.2798 15.72 34.9798V34.9698ZM20.99 29.5098C20.99 28.6798 21.66 28.0098 22.49 28.0098C23.32 28.0098 23.99 28.6798 23.99 29.5098C23.99 30.3398 23.32 31.0098 22.49 31.0098C21.66 31.0098 20.99 30.3398 20.99 29.5098ZM30.61 32.6398C30.71 32.8698 30.63 33.6098 30.03 34.5998C29.27 35.8398 27.85 37.1898 25.87 37.8598C26.83 36.1598 27.68 33.7698 26.39 31.7198C26.57 31.4098 26.71 31.0698 26.81 30.7198C27.79 30.6798 29.92 30.8198 30.61 32.6298V32.6398ZM44.5 13H55.5C56.33 13 57 13.67 57 14.5V23.5C57 24.33 56.33 25 55.5 25H44.5C43.67 25 43 24.33 43 23.5V14.5C43 13.67 43.67 13 44.5 13ZM46 22H54V16H46V22ZM55.5 29H44.5C43.67 29 43 29.67 43 30.5C43 31.33 43.67 32 44.5 32H55.5C56.33 32 57 31.33 57 30.5C57 29.67 56.33 29 55.5 29ZM44.5 36H55.5C56.33 36 57 36.67 57 37.5C57 38.33 56.33 39 55.5 39H44.5C43.67 39 43 38.33 43 37.5C43 36.67 43.67 36 44.5 36ZM55.5 43H44.5C43.67 43 43 43.67 43 44.5C43 45.33 43.67 46 44.5 46H55.5C56.33 46 57 45.33 57 44.5C57 43.67 56.33 43 55.5 43Z" fill="black"/>
</svg>

<svg width="64" height="64" viewBox="0 0 64 64" fill="none" xmlns="http://www.w3.org/2000/svg"><path d="M22.5 13C13.4 13 6 20.4 6 29.5S13.4 46 22.5 46 39 38.6 39 29.5 31.6 13 22.5 13Zm0 30C15.06 43 9 36.94 9 29.5S15.06 16 22.5 16 36 22.06 36 29.5 29.94 43 22.5 43Z" fill="currentColor"/><path d="M29.89 25.5c.83.08 1.62-.33 2.03-1.04.42-.72.39-1.59-.08-2.27-2.34-3.4-5.99-4.69-8.63-4.76-2-.03-3.6.55-4.42 1.62-2.19 2.69-1.06 5.98.1 7.79-.4.54-.69 1.17-.82 1.86-.9-.28-1.78-1.44-2.75-3.59a2.112 2.112 0 0 0-1.92-1.24h-.01c-.83 0-1.56.46-1.91 1.21-1.78 3.73-1.07 7.53.19 9.85.95 1.74 2.28 2.85 3.61 3.02.32.05.62.08.92.08 2.91 0 4.88-2.32 5.78-4.06.17.02.34.05.51.05.53 0 1.03-.11 1.5-.28.21.93-.35 2.26-1.73 4.18-.48.67-.52 1.57-.11 2.28.38.67 1.07 1.07 1.82 1.07h.18c4.12-.33 7.06-2.84 8.44-5.09 1.04-1.69 1.33-3.39.81-4.64-1.23-3.23-4.63-3.9-6.78-3.81-.28-.63-.7-1.18-1.22-1.62.7-.65 2.14-.83 4.49-.59v-.02Zm-8.75-4.59c.15-.19.77-.48 1.83-.48h.16c1.45.04 3.34.59 4.91 1.97-1.95.02-4.43.47-5.57 2.61-.38 0-.73.06-1.08.15-.52-.83-1.47-2.75-.24-4.25h-.01Zm-5.42 14.06c-.25-.03-.86-.46-1.41-1.48-.69-1.28-1.15-3.19-.75-5.23 1 1.69 2.63 3.61 5.06 3.52.19.31.4.61.65.87-.46.87-1.65 2.63-3.55 2.33v-.01Zm5.27-5.46c0-.83.67-1.5 1.5-1.5s1.5.67 1.5 1.5-.67 1.5-1.5 1.5-1.5-.67-1.5-1.5Zm9.62 3.13c.1.23.02.97-.58 1.96-.76 1.24-2.18 2.59-4.16 3.26.96-1.7 1.81-4.09.52-6.14.18-.31.32-.65.42-1 .98-.04 3.11.1 3.8 1.91v.01ZM55.5 13h-11c-.83 0-1.5.67-1.5 1.5v9c0 .83.67 1.5 1.5 1.5h11c.83 0 1.5-.67 1.5-1.5v-9c0-.83-.67-1.5-1.5-1.5ZM54 22h-8v-6h8v6Zm1.5 7h-11c-.83 0-1.5.67-1.5 1.5s.67 1.5 1.5 1.5h11c.83 0 1.5-.67 1.5-1.5s-.67-1.5-1.5-1.5Zm0 7h-11c-.83 0-1.5.67-1.5 1.5s.67 1.5 1.5 1.5h11c.83 0 1.5-.67 1.5-1.5s-.67-1.5-1.5-1.5Zm0 7h-11c-.83 0-1.5.67-1.5 1.5s.67 1.5 1.5 1.5h11c.83 0 1.5-.67 1.5-1.5s-.67-1.5-1.5-1.5Z" fill="currentColor"/><path d="M58.5 6h-53A5.51 5.51 0 0 0 0 11.5v36C0 50.53 2.47 53 5.5 53H10v3.5c0 .83.67 1.5 1.5 1.5h8c.83 0 1.5-.67 1.5-1.5V53h22v3.5c0 .83.67 1.5 1.5 1.5h8c.83 0 1.5-.67 1.5-1.5V53h4.5c3.03 0 5.5-2.47 5.5-5.5v-36C64 8.47 61.53 6 58.5 6ZM18 55h-5v-2h5v2Zm33 0h-5v-2h5v2Zm10-7.5a2.5 2.5 0 0 1-2.5 2.5h-53A2.5 2.5 0 0 1 3 47.5v-36A2.5 2.5 0 0 1 5.5 9h53a2.5 2.5 0 0 1 2.5 2.5v36Z" fill="currentColor"/></svg>
